vendor/shopware/storefront/Resources/app/storefront/dist/assets/icon/default/screen-full.svg

<svg xmlns="http://www.w3.org/2000/svg" width="24" height="24" viewBox="0 0 24 24">
  <path fill="#758CA3" fill-rule="evenodd" d="M22,20.5857864 L22,17 C22,16.4477153 22.4477153,16 23,16 C23.5522847,16 24,16.4477153 24,17 L24,23 C24,23.5522847 23.5522847,24 23,24 L17,24 C16.4477153,24 16,23.5522847 16,23 C16,22.4477153 16.4477153,22 17,22 L20.5857864,22 L15.2928932,16.7071068 C14.9023689,16.3165825 14.9023689,15.6834175 15.2928932,15.2928932 C15.6834175,14.9023689 16.3165825,14.9023689 16.7071068,15.2928932 L22,20.5857864 Z M20.5857864,2 L17,2 C16.4477153,2 16,1.55228475 16,1 C16,0.44771525 16.4477153,0 17,0 L23,0 C23.5522847,0 24,0.44771525 24,1 L24,7 C24,7.55228475 23.5522847,8 23,8 C22.4477153,8 22,7.55228475 22,7 L22,3.41421356 L16.7071068,8.70710678 C16.3165825,9.09763107 15.6834175,9.09763107 15.2928932,8.70710678 C14.9023689,8.31658249 14.9023689,7.68341751 15.2928932,7.29289322 L20.5857864,2 Z M3.41421356,22 L7,22 C7.55228475,22 8,22.4477153 8,23 C8,23.5522847 7.55228475,24 7,24 L1,24 C0.44771525,24 0,23.5522847 0,23 L0,17 C0,16.4477153 0.44771525,16 1,16 C1.55228475,16 2,16.4477153 2,17 L2,20.5857864 L7.29289322,15.2928932 C7.68341751,14.9023689 8.31658249,14.9023689 8.70710678,15.2928932 C9.09763107,15.6834175 9.09763107,16.3165825 8.70710678,16.7071068 L3.41421356,22 Z M2,3.41421356 L2,7 C2,7.55228475 1.55228475,8 1,8 C0.44771525,8 0,7.55228475 0,7 L0,1 C0,0.44771525 0.44771525,0 1,0 L7,0 C7.55228475,0 8,0.44771525 8,1 C8,1.55228475 7.55228475,2 7,2 L3.41421356,2 L8.70710678,7.29289322 C9.09763107,7.68341751 9.09763107,8.31658249 8.70710678,8.70710678 C8.31658249,9.09763107 7.68341751,9.09763107 7.29289322,8.70710678 L2,3.41421356 Z"/>
</svg>

<svg xmlns="http://www.w3.org/2000/svg" width="24" height="24" viewBox="0 0 24 24"><path fill="#758CA3" fill-rule="evenodd" d="M22 20.5858V17c0-.5523.4477-1 1-1s1 .4477 1 1v6c0 .5523-.4477 1-1 1h-6c-.5523 0-1-.4477-1-1s.4477-1 1-1h3.5858l-5.293-5.2929c-.3904-.3905-.3904-1.0237 0-1.4142.3906-.3905 1.0238-.3905 1.4143 0L22 20.5858zM20.5858 2H17c-.5523 0-1-.4477-1-1s.4477-1 1-1h6c.5523 0 1 .4477 1 1v6c0 .5523-.4477 1-1 1s-1-.4477-1-1V3.4142l-5.2929 5.293c-.3905.3904-1.0237.3904-1.4142 0-.3905-.3906-.3905-1.0238 0-1.4143L20.5858 2zM3.4142 22H7c.5523 0 1 .4477 1 1s-.4477 1-1 1H1c-.5523 0-1-.4477-1-1v-6c0-.5523.4477-1 1-1s1 .4477 1 1v3.5858l5.2929-5.293c.3905-.3904 1.0237-.3904 1.4142 0 .3905.3906.3905 1.0238 0 1.4143L3.4142 22zM2 3.4142V7c0 .5523-.4477 1-1 1s-1-.4477-1-1V1c0-.5523.4477-1 1-1h6c.5523 0 1 .4477 1 1s-.4477 1-1 1H3.4142l5.293 5.2929c.3904.3905.3904 1.0237 0 1.4142-.3906.3905-1.0238.3905-1.4143 0L2 3.4142z"/></svg>
